X: 7
T:D-Dur-Lndler #18
M:3/4
L:1/8
S:j.m. schmalnauer: "tanz musik", bhlau, wien 1996 (compa bd. 5) 
C:trad
R:Lndler
N:halbe Applikatur
K:D
ce|df^G2 Bd|Ace2cc'|db"0"ed'b^g|aecAFA|
=GBC2EG|DFA2Ff|Ge"0"Agec|d4  :|
|:FA|GBC2EG|DFA2Ff|GeAgec|dfdAFA
|GBC2EG|DFA2Ff|GeAgec|d4   :|
